X:49
M:C
L:1/8
Q:"Andante  "1/4=140
K:G
!p!D/|G>Bd>B A>GA>B|G>G[BG]>[dB] L[e2c2G2C2] (d<B)|\
(G>Bd>B) (A>GA>B)|(G>E)(E>D) d2 L(B<G)||
L[e2c2](c>e) [d2B2] (B<G)|L[c2A2F2] (B>G) [A2F2D2] (F<D)|\
(G>E)(E>D) [d2F2] (B<G)||

